src/assets/svgs/experience.svg

<svg xmlns="http://www.w3.org/2000/svg" width="40" height="40" viewBox="0 0 40 40" fill="none">
<path d="M24.9573 25.1651L22.4089 25.1573L22.8232 23.372C22.9486 22.8316 22.9627 22.2826 22.8651 21.7397C22.5416 19.9421 21.0126 18.5598 19.2334 18.398C17.8204 16.8411 15.8396 15.9582 13.7149 15.9582H11.5619C14.6419 15.6986 17.0696 13.1104 17.0696 9.9643C17.0696 6.64648 14.3703 3.94727 11.0525 3.94727C7.73468 3.94727 5.03546 6.64648 5.03546 9.9643C5.03546 13.1104 7.46296 15.6986 10.5431 15.9582H8.39007C4.77499 15.9582 1.68671 18.5407 1.04702 22.0988L0.0185851 27.8191C-0.0428212 28.1606 0.0503819 28.5119 0.273038 28.7782C0.495694 29.0445 0.824913 29.1984 1.17202 29.1984H5.34171V37.6891C5.34171 38.3363 5.8664 38.861 6.51359 38.861L21.7505 38.8665C23.8499 38.8665 25.7873 37.6405 26.6861 35.7432L28.8069 31.2663C29.4366 29.9371 29.3439 28.4011 28.559 27.1573C27.774 25.9135 26.4273 25.1688 24.9573 25.1651ZM7.37921 9.96422C7.37921 7.93875 9.02702 6.29094 11.0525 6.29094C13.078 6.29094 14.7259 7.93875 14.7259 9.96422C14.7259 11.9897 13.078 13.6375 11.0525 13.6375C9.02702 13.6375 7.37921 11.9897 7.37921 9.96422ZM3.35374 22.5134C3.79241 20.0731 5.91046 18.3019 8.38999 18.3019H13.7148C15.0634 18.3019 16.3266 18.8218 17.2759 19.7456L15.8199 22.7045C15.8173 22.7098 15.8148 22.715 15.8123 22.7203C15.3913 23.609 14.7393 24.3713 13.9263 24.9248L11.0748 26.8665L2.57319 26.8545L3.35374 22.5134ZM7.68538 29.2102H10.2599V36.5173H7.68538V29.2102ZM26.6888 30.263L24.568 34.7398C24.0548 35.823 22.9489 36.5228 21.7504 36.5228H12.6037V28.6609L15.2455 26.862C16.4002 26.0758 17.3273 24.9934 17.9266 23.7318L19.3676 20.8031C19.9591 20.9945 20.4441 21.5202 20.5583 22.1546C20.5991 22.3823 20.593 22.6135 20.5401 22.842L19.7934 26.0598C19.7127 26.4073 19.7948 26.7726 20.0162 27.0523C20.2378 27.332 20.5745 27.4954 20.9313 27.4965L24.9507 27.5087C25.6245 27.5103 26.2172 27.8381 26.5768 28.408C26.9364 28.978 26.9773 29.654 26.6888 30.263Z" fill="#BA0800"/>
<path d="M21.711 8.60057L21.2428 11.3302C21.0741 12.2783 22.0954 13.0185 22.9432 12.5655L25.3946 11.2767L27.8459 12.5655C28.2409 12.7731 28.7193 12.7385 29.0801 12.4763C29.4409 12.2141 29.6217 11.7697 29.5463 11.3301L29.0782 8.60049L31.0614 6.66729C31.3809 6.35596 31.4958 5.89025 31.358 5.46596C31.2201 5.04174 30.8534 4.73252 30.412 4.66838L27.6712 4.2701L26.4456 1.78658C26.2482 1.38658 25.8409 1.1333 25.3948 1.1333C24.9487 1.1333 24.5413 1.38658 24.3439 1.7865L23.1182 4.2701L20.3775 4.66838C19.9361 4.73252 19.5693 5.04174 19.4316 5.46596C19.2937 5.89018 19.4087 6.35588 19.7281 6.66729L21.711 8.60057ZM24.0647 6.50111C24.4464 6.44564 24.7762 6.20596 24.947 5.86002L25.3945 4.9533L25.842 5.86002C26.0127 6.20588 26.3426 6.44564 26.7244 6.50111L27.7251 6.6465L27.001 7.35228C26.7248 7.6215 26.5988 8.0094 26.664 8.38955L26.8349 9.38611L25.94 8.91564C25.5985 8.73611 25.1908 8.73611 24.8493 8.91564L23.9543 9.38611L24.1253 8.38955C24.1905 8.0094 24.0645 7.6215 23.7882 7.35228L23.0641 6.64643L24.0647 6.50111Z" fill="#BA0800"/>
<path d="M39.9426 15.6852C39.8048 15.261 39.4381 14.9518 38.9966 14.8876L35.5634 14.3887L34.0281 11.2777C33.8306 10.8777 33.4233 10.6245 32.9772 10.6245C32.5311 10.6245 32.1238 10.8778 31.9263 11.2778L30.391 14.3888L26.9578 14.8877C26.5164 14.9519 26.1496 15.2611 26.0119 15.6853C25.874 16.1095 25.989 16.5752 26.3084 16.8865L28.7927 19.3081L28.2063 22.7275C28.0376 23.6756 29.0588 24.4158 29.9066 23.9628L32.9773 22.3484L36.0481 23.9628C36.8974 24.416 37.917 23.6746 37.7485 22.7275L37.162 19.3081L39.6463 16.8865C39.9655 16.5751 40.0805 16.1094 39.9426 15.6852ZM35.0847 18.0597C34.8084 18.329 34.6824 18.7169 34.7476 19.097L35.0368 20.7833L33.5224 19.9872C33.3516 19.8975 33.1644 19.8526 32.9771 19.8526C32.7898 19.8526 32.6025 19.8975 32.4318 19.9872L30.9175 20.7833L31.2067 19.097C31.272 18.7169 31.1459 18.329 30.8696 18.0597L29.6445 16.8655L31.3377 16.6195C31.7194 16.564 32.0493 16.3243 32.22 15.9784L32.9771 14.4442L33.7343 15.9784C33.9051 16.3243 34.2349 16.564 34.6166 16.6195L36.3098 16.8655L35.0847 18.0597Z" fill="#BA0800"/>
</svg>

<svg xmlns="http://www.w3.org/2000/svg" width="40" height="40" fill="none"><path d="m24.957 25.165-2.548-.008.414-1.785c.126-.54.14-1.09.042-1.632-.323-1.798-1.852-3.18-3.632-3.342a7.41 7.41 0 0 0-5.518-2.44h-2.153a6.024 6.024 0 0 0 5.508-5.994c0-3.318-2.7-6.017-6.018-6.017a6.024 6.024 0 0 0-6.017 6.017 6.024 6.024 0 0 0 5.508 5.994H8.39a7.455 7.455 0 0 0-7.343 6.14L.019 27.82a1.172 1.172 0 0 0 1.153 1.38h4.17v8.49c0 .647.524 1.172 1.172 1.172l15.236.006c2.1 0 4.037-1.226 4.936-3.124l2.12-4.477a4.251 4.251 0 0 0-.247-4.109 4.252 4.252 0 0 0-3.602-1.992ZM7.38 9.965a3.677 3.677 0 0 1 3.674-3.674 3.678 3.678 0 0 1 3.673 3.673 3.677 3.677 0 0 1-3.674 3.673A3.677 3.677 0 0 1 7.38 9.964ZM3.354 22.512a5.113 5.113 0 0 1 5.036-4.211h5.325a5.08 5.08 0 0 1 3.56 1.444l-1.455 2.959-.008.015a5.536 5.536 0 0 1-1.886 2.205l-2.851 1.941-8.502-.011.78-4.342Zm4.331 6.697h2.575v7.307H7.685V29.21Zm19.004 1.053-2.121 4.477a3.132 3.132 0 0 1-2.818 1.783h-9.146V28.66l2.642-1.799a7.882 7.882 0 0 0 2.68-3.13l1.442-2.929a1.783 1.783 0 0 1 1.19 1.352 1.7 1.7 0 0 1-.018.687l-.747 3.218a1.172 1.172 0 0 0 1.138 1.437l4.02.012c.674.001 1.266.33 1.626.899.36.57.4 1.246.112 1.855ZM21.711 8.6l-.468 2.73c-.169.948.852 1.688 1.7 1.236l2.452-1.29 2.45 1.29a1.172 1.172 0 0 0 1.701-1.236l-.468-2.73 1.983-1.933a1.172 1.172 0 0 0-.649-1.999l-2.74-.398-1.226-2.483a1.172 1.172 0 0 0-2.102 0L23.118 4.27l-2.74.398a1.172 1.172 0 0 0-.65 2L21.711 8.6Zm2.354-2.099c.381-.055.711-.295.882-.641l.448-.907.447.907c.17.346.5.586.882.641l1.001.145-.724.706c-.276.27-.402.657-.337 1.038l.17.996-.894-.47c-.341-.18-.75-.18-1.09 0l-.896.47.171-.996c.066-.38-.06-.769-.337-1.038l-.724-.706 1-.145ZM39.943 15.685a1.172 1.172 0 0 0-.946-.797l-3.434-.5-1.535-3.11a1.172 1.172 0 0 0-2.102 0l-1.535 3.11-3.433.5a1.172 1.172 0 0 0-.65 1.999l2.485 2.421-.587 3.42c-.168.948.853 1.688 1.7 1.235l3.071-1.615 3.071 1.615c.85.453 1.869-.288 1.7-1.236l-.586-3.419 2.484-2.421c.32-.312.434-.778.297-1.202Zm-4.858 2.375c-.277.269-.403.657-.337 1.037l.289 1.686-1.515-.796a1.172 1.172 0 0 0-1.09 0l-1.515.796.29-1.686c.065-.38-.061-.768-.337-1.037l-1.226-1.194 1.694-.247c.381-.055.711-.295.882-.64l.757-1.535.757 1.534c.171.346.5.586.883.641l1.693.247-1.225 1.194Z" fill="#BA0800"/></svg>
